X: 1
T: Nach Truagh Mo Chas
T: Hard Is My Fate
C:
R: air
B: Version from the Concord Slow Scottish Jam session binder 2.
Z: 2015 John Chambers <jc:trillian.mit.edu>
M: C
L: 1/16
Q: "Slow and Plaintive" 1/4=58
K: Bb
!p!(B3c) |\
{Bc}d4F4 F4d4 | (d2c2)(c2B2) B4(B3c) |\
{Bc}d4G4 G4c4 |
(B2A2)(G2F2) F4(B3c) |\
{Bc}d4F4 F4d4 | (d2c2)(c2B2) B4(B3c) |\
({Bc}d6G2) (c6A2) | B12 :|
|: !mp!(D3E) |\
({DE}F6D2) ({D}B6c2) | (dc)BA (GF)ED (E6D2) |\
(C6D2) (E6F2) | ((F2E2)(E2D2)) D4 z2(de) |
({de}f6d2) (b6c'2) | (d'c')ba (gf)ed (e6f2) |\
({de}g6f2) f6A2 | B12 :|
